X: 24
T: Se Pensando al Partire
N: FIXME CHORD ISSUES
C: Arr. Emma Badowski
P: AA BBB
N: 
N: 
K: F major
M: 4/4
L: 1/8
P: A
"Bb"F2 |: "Bb"F2F2 "C"G2G2 | "F"A2A2 A2"C"G2 | "Bb"F2"Gm"ED "Asus4"E4 | "^*""Dm"D6"^*"D2 | "Dm"D2"Am"E2 "Bb"F2"C"G2 | "F"A2"F"A2 "F"A2"C"G2 | \
"Dm"F2"Dm"ED "Asus4"E2E2 | "D"^F2"D"F2 "D"F4 :: 
P: B
"F"A4 "C"G3A | "Gm"B2B2 "F"A2c2 | "Gm"B2"F"A2 "C"G4 | "F"A4 "^*""F"A4 | \
"F"A4 "C"G3A | "Gm"B2B2 "F"A2c2 | "Gm"B2"F"A2 "C"G4 | "^*""F F"A8 | "F"A2"F"A2 "Dm"A2"C"G2 | "Dm"A4 "Bb"F4 | 
"Bb"F3E "Gm"G2"Dm"F2 | "Asus4"E4 "^*""Dm"D4 | "Dm"D2"Dm"A2 A2"C"G2 | "Dm"A4 "Bb"F4 | "Bb"F3A "Gm"G2"Dm"F2 | "Asus4"E4 "D"^F4 | 
"Bb"F2"Bb"F2 "C"G2"C"G2 | "F"A2"F"A2 "F"A2"C"G2 | "Bb"F2"Gm"ED "Asus4"E4 | "^*""Dm Dm Dm"D6"^*""Dm"D2 | "Dm"D2"Am"E2 "Bb"F2"C"G2 | "F"A2"F"A2 "F"A2"C"G2 | 
"Dm"F2"Dm"ED "Asus4"E2E2 | "D"^F2"D"F2 "D"F4 "^(3)":| 

